icons/1_Primary/Authelia.svg

<svg width="1024" height="1024" viewBox="0 0 1024 1024" fill="none" xmlns="http://www.w3.org/2000/svg">
<g clip-path="url(#clip0_2_1530)">
<path d="M512 1024C794.77 1024 1024 794.77 1024 512C1024 229.23 794.77 0 512 0C229.23 0 0 229.23 0 512C0 794.77 229.23 1024 512 1024Z" fill="#728DBE"/>
<path d="M580.39 364.94C619.39 382.57 651.11 416.22 665.06 456.83C668.29 465.03 669.74 473.83 673.2 481.96C676.88 489.85 686.95 493.11 694.79 489.63C702.88 486.93 707.22 477.63 705.25 469.63C699 439.38 684.88 411 665.59 387C647.81 365 624.98 347.24 599.79 334.38C593.89 331.51 587.39 328.48 580.67 329.95C571.3 331.67 564.99 342.19 567.67 351.29C569.11 357.78 574.39 362.59 580.39 364.94ZM687.91 601C690.8 594.2 695.73 587.48 694.6 579.72C693.54 571.57 685.81 565.26 677.72 565.19C674.214 565.066 670.752 566.001 667.784 567.872C664.817 569.743 662.481 572.463 661.08 575.68C650.2 599.4 634.16 620.88 613.72 637.18C594.29 652.83 571.01 663.35 546.72 668.84C518.12 675.42 487.83 673.13 460.21 663.41C415.08 648.21 376.76 612.15 361.21 566.87C351.4 538.05 348.47 506.54 355.11 476.7C364.7 433.97 391.62 394.94 429.67 372.78C437.15 368.33 447.41 364.18 448.22 354.18C449.8 341.78 436.03 330.1 424.22 335.95C379.28 357.31 343.97 397.34 327.22 444.09C318.78 467.8 315.58 493.19 316.38 518.28C317.91 561.156 333.224 602.397 360.05 635.88C388.49 670.72 429.29 695.53 473.52 704C512.98 711.41 554.83 707.5 591.59 691C632.58 672.94 668.16 641.49 687.91 601ZM633.24 458.86C620.693 430.529 598.47 407.591 570.552 394.154C542.633 380.717 510.842 377.658 480.873 385.526C450.905 393.394 424.716 411.674 406.998 437.093C389.281 462.511 381.191 493.408 384.179 524.247C387.167 555.087 401.036 583.856 423.304 605.401C445.572 626.946 474.782 639.859 505.704 641.828C536.626 643.796 567.238 634.692 592.058 616.145C616.879 597.599 634.285 570.821 641.16 540.61C647.328 513.214 644.552 484.562 633.24 458.86ZM537.66 592.8C522.87 601.51 503.09 601.41 488.47 592.34C481.28 587.83 475 579.26 477.54 570.4C483.77 543.78 490.54 517.26 497.16 490.75C490.31 486.75 484.32 480.96 481.16 473.57C475.4 461.08 478.16 445.38 487.61 435.45C492.382 430.315 498.573 426.716 505.396 425.109C512.219 423.503 519.365 423.961 525.927 426.427C532.488 428.893 538.168 433.254 542.245 438.956C546.321 444.658 548.61 451.443 548.82 458.45C549.45 471.79 541.39 484.45 529.82 490.72C536.46 517.31 543.1 543.89 549.39 570.54C551.84 579.69 545.15 588.37 537.66 592.8ZM769.09 460.22C766.58 446.32 762.31 432.82 757.42 419.61C754.82 411.61 746.3 405.37 737.75 407.2C730.43 408.13 725.12 414.53 722.97 421.2C720.54 428.46 726.16 434.8 727.88 441.53C739.25 476.81 742.23 515 735.26 551.48C725.32 605.14 695.26 654.88 651.93 688.2C619.64 713.78 579.82 728.92 539.08 733.78C532.98 734.52 526.23 734.78 521.41 739.16C514.53 744.65 513.35 755.58 518.79 762.46C522.29 766.97 528.24 768.14 533.52 769.13H544.2C555.68 767.68 567.01 765.13 578.35 762.84C625.851 750.419 668.925 724.946 702.694 689.305C736.463 653.665 759.577 609.281 769.42 561.18C776.2 527.94 774.91 493.5 769.09 460.22ZM501.28 286C497.28 288.16 492.68 288.37 488.28 289C456.28 292.93 424.59 302.28 396.89 319.09C356.004 342.928 323.728 379.115 304.7 422.45C286.14 462.37 281.85 508.05 289.23 551.23C296.637 593.845 316.09 633.449 345.29 665.36C349.17 669.76 354.03 674.02 354.91 680.17C356.41 691.29 345.08 702.55 333.91 699.85C326.81 698.16 322.38 691.85 317.41 687C289.993 656.617 270.095 620.22 259.32 580.74C257.18 571.82 254.37 562.98 253.54 553.81L253.6 554.67C248.99 533.01 250.11 504.4 250.11 504.4C251.4 493.17 251.75 481.81 253.77 470.66C260.36 427.66 279.16 386.94 305.88 352.66C332.24 318.37 367.66 291.35 407.31 274.21C423.69 267.03 440.82 261.1 458.45 257.95C476.08 254.8 474.16 254.44 488.45 254.86C489.99 254.86 492.23 254.98 493.88 255.07C494.46 255.07 495.12 255.07 495.83 255.18H496C498.325 255.363 500.603 255.934 502.74 256.87H502.83C504.112 257.3 505.25 258.075 506.12 259.11C506.483 259.445 506.817 259.809 507.12 260.2V260.28C513.05 268.27 510.07 281.39 501.28 286Z" fill="white"/>
</g>
<defs>
<clipPath id="clip0_2_1530">
<rect width="1024" height="1024" fill="white"/>
</clipPath>
</defs>
</svg>

<svg xmlns="http://www.w3.org/2000/svg" viewBox="0 0 1024 1024">
   <circle cx="512" cy="512" r="512" style="fill:#3f51b5"/>
   <path d="M580.39 364.94c39 17.63 70.72 51.28 84.67 91.89 3.23 8.2 4.68 17 8.14 25.13 3.68 7.89 13.75 11.15 21.59 7.67 8.09-2.7 12.43-12 10.46-20C699 439.38 684.88 411 665.59 387c-17.78-22-40.61-39.76-65.8-52.62-5.9-2.87-12.4-5.9-19.12-4.43-9.37 1.72-15.68 12.24-13 21.34 1.44 6.49 6.72 11.3 12.72 13.65ZM687.91 601c2.89-6.8 7.82-13.52 6.69-21.28-1.06-8.15-8.79-14.46-16.88-14.53a17.48 17.48 0 0 0-16.64 10.49c-10.88 23.72-26.92 45.2-47.36 61.5-19.43 15.65-42.71 26.17-67 31.66-28.6 6.58-58.89 4.29-86.51-5.43-45.13-15.2-83.45-51.26-99-96.54-9.81-28.82-12.74-60.33-6.1-90.17 9.59-42.73 36.51-81.76 74.56-103.92 7.48-4.45 17.74-8.6 18.55-18.6 1.58-12.4-12.19-24.08-24-18.23-44.94 21.36-80.25 61.39-97 108.14-8.44 23.71-11.64 49.1-10.84 74.19a199.46 199.46 0 0 0 43.67 117.6c28.44 34.84 69.24 59.65 113.47 68.12 39.46 7.41 81.31 3.5 118.07-13 40.99-18.06 76.57-49.51 96.32-90Zm-54.67-142.14a130.42 130.42 0 1 0 7.92 81.75 131.33 131.33 0 0 0-7.92-81.75ZM537.66 592.8c-14.79 8.71-34.57 8.61-49.19-.46-7.19-4.51-13.47-13.08-10.93-21.94 6.23-26.62 13-53.14 19.62-79.65-6.85-4-12.84-9.79-16-17.18-5.76-12.49-3-28.19 6.45-38.12a35.34 35.34 0 0 1 61.21 23c.63 13.34-7.43 26-19 32.27 6.64 26.59 13.28 53.17 19.57 79.82 2.45 9.15-4.24 17.83-11.73 22.26Zm231.43-132.58c-2.51-13.9-6.78-27.4-11.67-40.61-2.6-8-11.12-14.24-19.67-12.41-7.32.93-12.63 7.33-14.78 14-2.43 7.26 3.19 13.6 4.91 20.33 11.37 35.28 14.35 73.47 7.38 109.95-9.94 53.66-40 103.4-83.33 136.72-32.29 25.58-72.11 40.72-112.85 45.58-6.1.74-12.85 1-17.67 5.38-6.88 5.49-8.06 16.42-2.62 23.3 3.5 4.51 9.45 5.68 14.73 6.67h10.68c11.48-1.45 22.81-4 34.15-6.29a262.92 262.92 0 0 0 191.07-201.66c6.78-33.24 5.49-67.68-.33-100.96ZM501.28 286c-4 2.16-8.6 2.37-13 3-32 3.93-63.69 13.28-91.39 30.09a223.8 223.8 0 0 0-92.19 103.36c-18.56 39.92-22.85 85.6-15.47 128.78a226.52 226.52 0 0 0 56.06 114.13c3.88 4.4 8.74 8.66 9.62 14.81 1.5 11.12-9.83 22.38-21 19.68-7.1-1.69-11.53-8-16.5-12.85a261.31 261.31 0 0 1-58.09-106.26c-2.14-8.92-4.95-17.76-5.78-26.93l.06.86c-4.61-21.66-3.49-50.27-3.49-50.27 1.29-11.23 1.64-22.59 3.66-33.74 6.59-43 25.39-83.72 52.11-118 26.36-34.29 61.78-61.31 101.43-78.45 16.38-7.18 33.51-13.11 51.14-16.26s15.71-3.51 30-3.09c1.54 0 3.78.12 5.43.21.58 0 1.24 0 1.95.11h.17a20.92 20.92 0 0 1 6.74 1.69h.09a7.36 7.36 0 0 1 3.29 2.24 9 9 0 0 1 1 1.09v.08c5.93 7.99 2.95 21.11-5.84 25.72Z" style="fill:#fff"/>
</svg>
